X:68
T:Cuckoo Solo, The
S:John Moore's Book 2
Z:Transcribed by Edmund Spriggs 04/2021
%%VWML: Moore1-4494-p50-0
F:http://www.vwml.org/record/Moore2/4494/p50
N:The tune runs from page 50 to 54 in the manuscript. The page turn direction "Volti Subito" has been omitted from this transcription.
N:In the manuscript, the repeat mark at the beginning of the second strain is not matched by a repeat mark at the end of the same strain.
N:This inconsistency is replicated in this transcription.
M:C|
L:1/8
K:A
A2EGAA, z1 A|Bc/d/e>d c/B/A A e|Ee Ee Ec z1e|E/e/d/e/ E/e/d/e/ Ec z1 E|
E/F/G/A/ Bc dc z1 B|A/B/c/d/ ea ag z1 a|bd/c/ db dc/B/ ca|cB/A/ d/c/B/A/ e2dc|
c/e/e/e/ B/e/e/e/ c/e/e/e/ A/e/e/e/|d/f/f/f/ c/f/f/f/ d/f/f/f/ B/f/f/f/|A/a/a/a/ B/a/a/a/ c/a/a/a/ B/a/a/a/|A/a/A/a/ B/a/B/a/ c/a/c/a/ B/a/B/a/|
A/a/g/f/ e/d/c/B/ A/B/c/d/ ea|g/e/f/e/ ^de e4:|
|:a(g/f/) e/d/c/B/ A2z1E|A(G/F/) E/D/C/B,/ A,2z1e|e/a/g/a/ e/a/g/a/ e/a/g/a/ e/a/g/a/|e/b/a/b/ e/b/a/b/ e/b/a/b/ e/b/a/b/|e/c'/b/c'/ e/c'/b/c'/ e/c'/b/c'/ e/c'/b/c'/|
e/d'/c'/d'/ e/d'/c'/d'/ e/d'/c'/d'/ e/d'/c'/d'/|e'/e'/e'/e'/ e'/e'/e'/e'/ g/e'/e'/e'/ e'/e'/e'/e'/|e/e'/e'/e'/ e'/e'/e'/e'/ g/e'/e'/e'/ e'/e'/e'/e'/|e/e'/e'/e'/ e'/e'/e'/e'/ g/e'/e'/e'/ e'/e'/e'/e'/|
e/e'/e'/e'/ f/e'/e'/e'/ g/e'/e'/e'/ f/e'/e'/e'/|e/e'/e'/e'/ f/e'/e'/e'/ g/e'/e'/e'/ f/e'/e'/e'/|e/e'/e'/e'/ f/e'/e'/e'/ g/e'/e'/e'/ f/e'/e'/e'/|e/e'/e'/e'/ f/e'/e'/e'/ g/e'/e'/e'/ f/e'/e'/e'/|
e/e'/e/e'/ f/e'/f/e'/ g/e'/g/e'/ f/e'/f/e'/|e/e'/e/e'/ f/e'/f/e'/ g/e'/g/e'/ f/e'/f/e'/|e/e'/e/e'/ f/e'/f/e'/ g/e'/g/e'/ f/e'/f/e'/|e/e'/e/e'/ f/e'/f/e'/ g/e'/g/e'/ f/e'/f/e'/|
e/e'/f/e'/ g/e'/f/e'/ e/e'/f/e'/ g/e'/f/e'/|e/e'/f/e'/ g/e'/f/e'/ e/e'/f/e'/ g/e'/f/e'/|e/e'/f/e'/ g/e'/f/e'/ e/e'/f/e'/ g/e'/f/e'/|e/e'/f/e'/ g/e'/f/e'/ e/e'/f/e'/ g/e'/f/e'/|
g/e'/f/e'/ g/e'/e/e'/ g/e'/f/e'/ g/e'/e/e'/|g/e'/f/e'/ g/e'/e/e'/ g/e'/f/e'/ g/e'/e/e'/|g/e'/f/e'/ g/e'/f/e'/ g/e'/f/e'/ g/e'/f/e'/|g/e'/f/e'/ g/e'/f/e'/ g/e'/f/e'/ g/e'/f/e'/|
g/e'/f/e'/ g/e'/f/e'/ g/e'/f/e'/ g/e'/f/e'/|e'd'/c'/ bb c'c'g2|ag/f/ fa gf/e/ z1 d|c/e/B/e/ A/e/B/e/ c/e/B/e/ A/e/B/e/|c/e/B/e/ A/e/B/e/ c/e/B/e/ A/e/B/e/|
c/e/B/e/ A/e/B/e/ c/e/B/e/ A/e/B/e/|c/e/B/e/ A/e/B/e/ c/e/B/e/ A/e/B/e/|d/c/B/c/ d/c/B/A/ GE z1 E|E/F/G/A/ Bc dc z1 B|
A/B/c/d/ ea ag z1 f|e2d2 cEAd|c2B2 A2 z1 E|E/F/G/A/ Bc dc z1 B|
A/B/c/d/ ea ag z1 f|e2d2 cEAd|c/d/e/f/ cBA4|]
